packages/core/src/svgs/bsw.svg

<svg width="24" height="24" viewBox="0 0 24 24" fill="none" xmlns="http://www.w3.org/2000/svg">
<g clip-path="url(#clip0_31_7520)">
<path d="M0 0H24V24H0V0Z" fill="#F0F3FA"/>
<path d="M17.3143 7.72266C16.8343 7.81694 16.3843 7.9498 16.0114 8.03123C15.5309 8.1353 15.0955 8.38864 14.7676 8.75504C14.4397 9.12143 14.236 9.58211 14.1857 10.0712C14.0314 11.1384 14.3914 11.5969 14.2329 12.8398C13.9586 15.0041 11.8757 15.7541 10.9071 16.2041C10.35 16.4612 8.98286 17.0612 7.93286 17.5198C9.27153 18.5009 10.9206 18.9632 12.5742 18.8209C14.2278 18.6786 15.7736 17.9414 16.925 16.746C18.0764 15.5507 18.7552 13.9783 18.8354 12.3206C18.9157 10.6628 18.392 9.03221 17.3614 7.73123L17.31 7.72266H17.3143Z" fill="url(#paint0_linear_31_7520)"/>
<path d="M11.2285 10.9928C11.7557 9.85284 11.5671 9.84856 11.9657 8.77713C12.0696 8.45631 12.276 8.17851 12.5533 7.98648C12.8305 7.79444 13.1631 7.6988 13.5 7.71427C13.8943 7.71427 14.3057 7.83856 14.4814 7.85998C15.1971 7.95856 15.3814 7.70141 16.8943 7.46141L17.1085 7.43141C16.3563 6.58807 15.4072 5.94385 14.3457 5.55612C13.2842 5.16839 12.1433 5.04918 11.0246 5.20912C9.90592 5.36905 8.84412 5.80317 7.93381 6.4728C7.02349 7.14243 6.29291 8.02679 5.80711 9.04713C8.07426 9.60427 10.5171 10.8257 11.2285 10.9928ZM9.72854 6.34284C9.92997 6.37284 10.8985 7.57284 11.0785 10.6628C11.0785 10.6628 9.83569 10.3628 9.56569 9.71999C9.34711 9.19713 9.63426 8.50284 9.72854 6.34284ZM17.3571 7.71427L17.37 7.72713L17.3143 7.72284C17.3314 7.71427 17.3443 7.71427 17.3571 7.71427ZM5.14283 12C5.14283 11.4514 5.20711 10.92 5.32711 10.4143C5.57569 10.62 5.8414 10.8514 6.12426 11.1128C7.9114 12.7671 10.8171 14.0743 11.8757 12.8614H11.88C11.6871 13.1186 10.9885 13.8643 9.57854 13.6114L7.30711 17.0014C6.62288 16.3606 6.07768 15.5859 5.70537 14.7255C5.33306 13.8652 5.14158 12.9375 5.14283 12Z" fill="url(#paint1_linear_31_7520)"/>
</g>
<defs>
<linearGradient id="paint0_linear_31_7520" x1="16.1186" y1="9.51837" x2="14.4986" y2="18.4327" gradientUnits="userSpaceOnUse">
<stop stop-color="#FF496A"/>
<stop offset="1" stop-color="#E42648"/>
</linearGradient>
<linearGradient id="paint1_linear_31_7520" x1="8.4514" y1="15.2443" x2="12.03" y2="5.14284" gradientUnits="userSpaceOnUse">
<stop stop-color="#1158F1"/>
<stop offset="1" stop-color="#119BED"/>
</linearGradient>
<clipPath id="clip0_31_7520">
<rect width="24" height="24" fill="white"/>
</clipPath>
</defs>
</svg>

<svg xmlns="http://www.w3.org/2000/svg" width="24" height="24" fill="none" viewBox="0 0 24 24"><g clip-path="url(#a)"><path fill="#F0F3FA" d="M0 0h24v24H0z"/><path fill="url(#b)" d="M17.314 7.723c-.48.094-.93.227-1.303.308a2.33 2.33 0 0 0-1.825 2.04c-.155 1.067.205 1.526.047 2.769-.274 2.164-2.357 2.914-3.326 3.364-.557.257-1.924.857-2.974 1.316A6.857 6.857 0 0 0 17.36 7.73l-.051-.008z"/><path fill="url(#c)" d="M11.229 10.993c.527-1.14.338-1.144.737-2.216A1.54 1.54 0 0 1 13.5 7.714c.394 0 .806.125.981.146.716.099.9-.159 2.413-.399l.215-.03A6.852 6.852 0 0 0 5.807 9.047c2.267.557 4.71 1.779 5.422 1.946m-1.5-4.65c.201.03 1.17 1.23 1.35 4.32 0 0-1.243-.3-1.513-.943-.219-.523.068-1.217.163-3.377m7.628 1.371.013.013-.056-.004c.017-.009.03-.009.043-.009M5.143 12q.002-.825.184-1.586.373.307.797.699c1.787 1.654 4.693 2.961 5.752 1.748h.004c-.193.258-.892 1.003-2.301.75l-2.272 3.39A6.84 6.84 0 0 1 5.143 12"/></g><defs><linearGradient id="b" x1="16.119" x2="14.499" y1="9.518" y2="18.433" gradientUnits="userSpaceOnUse"><stop stop-color="#FF496A"/><stop offset="1" stop-color="#E42648"/></linearGradient><linearGradient id="c" x1="8.451" x2="12.03" y1="15.244" y2="5.143" gradientUnits="userSpaceOnUse"><stop stop-color="#1158F1"/><stop offset="1" stop-color="#119BED"/></linearGradient><clipPath id="a"><path fill="#fff" d="M0 0h24v24H0z"/></clipPath></defs></svg>
